**kern	**kern	**dynam
*part1	*part1	*part1
*staff2	*staff1	*
*I"Piano	*	*
*clefF4	*clefG2	*
*k[]	*k[]	*
=1	=1	=1
(8DDL	4r	.
8FF	.	.
8AA	4r	.
8DJ	.	.
8FL	4re	.
8AJ	.	.
8dL>	2re	.
8A	.	.
8d>	.	.
8f>	.	.
8a>	4re	.
8ddJ>	.	.
=	=	=
4ff>)	2r	.
4r	.	.
4r	4r	.
4EE 4BB 4E	4G#X: 4d: 4e: 4g#X:	pp
4r	4r	.
4r	4r	.
=	=	=
(8AAAL	2r	.
8EE	.	.
8AA	.	.
8C	.	.
8E	4r	.
8AJ	.	.
8cL>	2r	.
8e>	.	.
8a>	.	.
8cc>	.	.
8ee>	4r	.
8ccJ>)	.	.
=	=	=
8r	(8bL	.
(8cL	8a	.
8A	8e	.
8c	8a	.
8f>	8cc	.
8aJ>	8eeJ	.
8ccL>	8aaL	.
8a>	8ee	.
8e>	8cc	.
8c	8ee	.
8A	8aa	.
8EJ	8cccJ	.
=	=	=
4C)	4eee)	.
4r	4r	.
4r	4r	.
*	*^	*
2.DD 2.AA	2.a	2A 2f#X	<
.	.	4B 4fn	.
*	*v	*v	*
=	=	=
[1.AAA [1.EE	1.B 1.d 1.f [1.a	[ >
=	=	=
1.AAA;] 1.EE]	1.c; 1.e 1.a]	]
==	==	==
*-	*-	*-
!!!system-decoration: {(s1,s2)}
!!!RDF**kern: > = above
